X:672
T:Planxty Miss Burke
C:O'Carolan
B:O'Neill's 672
Z: 1997 by John Chambers <jc@trillian.mit.edu>
N:"Lively"
N:The second section has a repeat at the end but not at the beginning.
M:6/8
L:1/8
K:D
d2d ded|cez efg|gfed fed|faz z3|
|a2f agfe|dcB ABc|dFA dFA|d3 d2 :|
||A \
|fa/b/.a agfe|d2A d2A|bag fed|cez z2e|
|.af/g/a .bg/a/b|.af/g/a geg|gfed BcAc|d3 d2 :|
